assets/img/readyroll-getting-started-overview.svg

<svg height="231" viewBox="0 0 987 231" width="987" xmlns="http://www.w3.org/2000/svg"><g fill="none" fill-rule="evenodd"><path d="m7 30h135v166h-135z" fill="#fff"/><path d="m120.777253 46.3235294c-21.8036017 0-42.3724823 8.5343137-57.9093857 24.0245098-15.5173046 15.4705883-24.0623565 35.9166668-24.0623565 57.5686278v35c0 5.416666-4.0569398 9.656862-9.2359075 9.656862-5.0907735 0-9.2359076-4.142156-9.2359076-9.240196v-35c0-26.730392 10.4804277-51.9313722 29.5059073-70.9705879 19.0254796-19.0343137 44.2196635-29.5147059 70.93765-29.5147059 5.090773 0 9.235907 4.1421569 9.235907 9.2352941 0 4.8382353-4.404817 9.2401961-9.235907 9.2401961m0 41.5686275c-22.0583853 0-40.0059341 17.9558821-40.0059341 40.0245101v35c0 5.181372-4.3754193 9.558823-9.5543871 9.558823-5.0368769 0-9.1379139-4.098039-9.1379139-9.142157v-35c0-15.617647 6.1246072-30.3480389 17.241994-41.4705879 11.1173869-11.127451 25.8409421-17.25 41.4562411-17.25 5.036877 0 9.137914 4.0980392 9.137914 9.1372549 0 4.7843137-4.355821 9.1421569-9.137914 9.1421569m-45.8120617-87.8921569c-32.9013895 0-61.6380462 6.66666667-74.9651913 16.25v167.5c13.3271451 9.583333 42.0638018 16.25 74.9651913 16.25 32.9013897 0 61.6380467-6.666667 74.9651917-16.25v-167.5c-13.327145-9.58333333-42.063802-16.25-74.9651917-16.25" fill="#c00" transform="translate(0 13)"/><path d="m775.464913 64.9576637v-56.47863335c0-4.41701864-3.577872-7.99464702-7.9914-7.99464702h-759.48211301c-4.40497861 0-7.99139999 3.57932539-7.99139999 7.99464702v184.01070565c0 4.417019 3.57787165 7.994647 7.99139999 7.994647h759.48211301c4.404978 0 7.9914-3.579325 7.9914-7.994647v-56.478633l20.535087-35.52672z" fill="#fff" transform="matrix(-1 0 0 1 971 13)"/><g transform="translate(281 65)"><g fill="#b7b6b6"><path d="m69.5220321 26.8317416c-6.5772371 4.7063648-19.7294402 8.0017305-34.7621516 8.0017305-15.0304403 0-28.18491454-3.2953657-34.7598805-7.5306389v-19.76991848c6.57496596-4.70864065 19.7294402-7.53291472 34.7598805-7.53291472 15.0327114 0 28.1849145 3.29536571 34.7621516 7.53291472zm-34.7621516 37.6577461c-15.0304403 0-28.18491454-3.2953657-34.7598805-7.5329147v-19.7699185c8.45547435 4.237549 21.1375503 6.5907315 34.7598805 6.5907315 13.6223301 0 26.3066772-2.3531825 34.7621516-6.5907315v19.7699185c-6.5772371 4.237549-19.7294402 7.5329147-34.7621516 7.5329147zm0 29.1826482c-15.0304403 0-28.18491454-3.2930899-34.7598805-7.5306389v-19.7699185c8.45547435 4.237549 21.1375503 6.5907314 34.7598805 6.5907314 13.6223301 0 26.3066772-2.3531824 34.7621516-6.5907314v19.7699185c-6.5772371 4.237549-19.7294402 7.5306389-34.7621516 7.5306389z" transform="translate(270.758621)"/><path d="m185.667379 48.5446017-13.839793 23.895953h17.858017l13.841495-23.895953-13.841495-23.8959531h-17.858017z"/><path d="m422.581172 48.5446017-13.839793 23.895953h17.858017l13.841495-23.895953-13.841495-23.8959531h-17.858017z"/></g><path d="m39.2665143 70.732021-19.0776214-18.7965567 9.2192605-9.2429546 9.8583609 10.1987928 27.0282202-27.0836732 8.8997104 8.9227488zm8.4275393-70.732021c-26.2317295 0-47.6940536 21.5063577-47.6940536 47.7919061 0 26.2855483 21.4623241 47.7919061 47.6940536 47.7919061 26.2317294 0 47.6940535-21.5063578 47.6940535-47.7919061 0-26.2855484-21.4623241-47.7919061-47.6940535-47.7919061z" fill="#2fa836" transform="translate(507.672414)"/><path d="m9.45422126 75.7871422h66.17774904v-52.1039984h-66.17774904zm-9.45422126-75.7871422v75.7871422c0 5.2102195 4.25466953 9.4736182 9.45422126 9.4736182h66.17774904c5.1995517 0 9.4542213-4.2633987 9.4542213-9.4736182v-75.7871422z" fill="#b7b6b6"/><path d="m55.5626725 35.9214787c-6.2020267 0-12.0512974 2.4310751-16.4697466 6.8441616-4.4130497 4.4058727-6.8445466 10.2310749-6.8445466 16.398936v9.9695719c0 1.5419653-1.1536562 2.7502889-2.6258726 2.7502889-1.4488194 0-2.6258726-1.1794681-2.6258726-2.63126v-9.9695719c0-7.6142426 2.9804284-14.7938493 8.3905539-20.2168781 5.4119252-5.4230287 12.5768319-8.4077685 20.1754845-8.4077685 1.4488194 0 2.6258726 1.1794682 2.6258726 2.6312601 0 1.3760462-1.250844 2.63126-2.6258726 2.63126m0 11.8415719c-6.2740177 0-11.3781814 5.1146357-11.3781814 11.4015257v9.9695719c0 1.475237-1.2436449 2.7232369-2.7176611 2.7232369-1.4326214 0-2.598876-1.1686473-2.598876-2.604208v-9.9695719c0-4.4509595 1.7421828-8.6458264 4.9043885-11.8145199 3.1622058-3.1686936 7.3502836-4.9144507 11.79033-4.9144507 1.4326214 0 2.598876 1.1686473 2.598876 2.604208 0 1.3634219-1.2382456 2.604208-2.598876 2.604208" fill="#b7b6b6"/><path d="m104.072024 71.980021c0 12.8605314-10.4045023 23.2863808-23.2387022 23.2863808-12.8359996 0-23.2405024-10.4258494-23.2405024-23.2863808 0-12.8605315 10.4045028-23.2863808 23.2405024-23.2863808 12.8341999 0 23.2387022 10.4258493 23.2387022 23.2863808" fill="#fff"/><path d="m91.1658336 73.5129689h-8.8045023v8.8225662h-3.5221609v-8.8225662h-8.8045022v-3.5293872h8.8045022v-8.8225662h3.5221609v8.8225662h8.8045023zm-10.5646828-19.4089243c-9.6845926 0-17.6090046 7.9406703-17.6090046 17.6451324 0 9.7044622 7.924412 17.643329 17.6090046 17.643329 9.6845925 0 17.6090045-7.9388668 17.6090045-17.643329 0-9.7044621-7.924412-17.6451324-17.6090045-17.6451324z" fill="#b7b6b6"/></g></g></svg>

<?xml version="1.0" encoding="UTF-8"?>
<svg width="987px" height="231px" viewBox="0 0 987 231" version="1.1" xmlns="http://www.w3.org/2000/svg" xmlns:xlink="http://www.w3.org/1999/xlink">
    <!-- Generator: Sketch 44.1 (41455) - http://www.bohemiancoding.com/sketch -->
    <title>Artboard Copy 4</title>
    <desc>Created with Sketch.</desc>
    <defs></defs>
    <g id="Mockups" stroke="none" stroke-width="1" fill="none" fill-rule="evenodd">
        <g id="Artboard-Copy-4">
            <rect id="Rectangle-7" fill="#FFFFFF" x="7" y="30" width="135" height="166"></rect>
            <g id="Group-7" transform="translate(0.000000, 13.000000)">
                <g id="Group-4" fill="#CC0000">
                    <path d="M120.777253,46.3235294 C98.9736513,46.3235294 78.4047707,54.8578431 62.8678673,70.3480392 C47.3505627,85.8186275 38.8055108,106.264706 38.8055108,127.916667 L38.8055108,162.916667 C38.8055108,168.333333 34.748571,172.573529 29.5696033,172.573529 C24.4788298,172.573529 20.3336957,168.431373 20.3336957,163.333333 L20.3336957,128.333333 C20.3336957,101.602941 30.8141234,76.4019608 49.839603,57.3627451 C68.8650826,38.3284314 94.0592665,27.8480392 120.777253,27.8480392 C125.868026,27.8480392 130.01316,31.9901961 130.01316,37.0833333 C130.01316,41.9215686 125.608343,46.3235294 120.777253,46.3235294 M120.777253,87.8921569 C98.7188677,87.8921569 80.7713189,105.848039 80.7713189,127.916667 L80.7713189,162.916667 C80.7713189,168.098039 76.3958996,172.47549 71.2169318,172.47549 C66.1800549,172.47549 62.0790179,168.377451 62.0790179,163.333333 L62.0790179,128.333333 C62.0790179,112.715686 68.2036251,97.9852941 79.3210119,86.8627451 C90.4383988,75.7352941 105.161954,69.6127451 120.777253,69.6127451 C125.81413,69.6127451 129.915167,73.7107843 129.915167,78.75 C129.915167,83.5343137 125.559346,87.8921569 120.777253,87.8921569 M74.9651913,0 C42.0638018,0 13.3271451,6.66666667 0,16.25 L0,183.75 C13.3271451,193.333333 42.0638018,200 74.9651913,200 C107.866581,200 136.603238,193.333333 149.930383,183.75 L149.930383,16.25 C136.603238,6.66666667 107.866581,0 74.9651913,0" id="Fill-17"></path>
                </g>
                <g id="Group-6" transform="translate(175.000000, 0.000000)">
                    <path d="M775.464913,64.9576637 L775.464913,8.47903035 C775.464913,4.06201171 771.887041,0.484383332 767.473513,0.484383332 L7.99139999,0.484383332 C3.58642138,0.484383332 0,4.06370872 0,8.47903035 L0,192.489736 C0,196.906755 3.57787165,200.484383 7.99139999,200.484383 L767.473513,200.484383 C771.878491,200.484383 775.464913,196.905058 775.464913,192.489736 L775.464913,136.011103 L796,100.484383 L775.464913,64.9576637 Z" id="Combined-Shape" fill="#FFFFFF" transform="translate(398.000000, 100.484383) scale(-1, 1) translate(-398.000000, -100.484383) "></path>
                    <g id="Group-5" transform="translate(106.000000, 52.000000)">
                        <g id="Group" transform="translate(270.758621, 0.000000)" fill="#B7B6B6">
                            <path d="M69.5220321,26.8317416 L69.5220321,26.8317416 C62.944795,31.5381064 49.7925919,34.8334721 34.7598805,34.8334721 C19.7294402,34.8334721 6.57496596,31.5381064 0,27.3028332 L0,7.53291472 C6.57496596,2.82427407 19.7294402,0 34.7598805,0 C49.7925919,0 62.944795,3.29536571 69.5220321,7.53291472 L69.5220321,26.8317416 Z M34.7598805,64.4894877 C19.7294402,64.4894877 6.57496596,61.194122 0,56.956573 L0,37.1866545 C8.45547435,41.4242035 21.1375503,43.777386 34.7598805,43.777386 C48.3822106,43.777386 61.0665577,41.4242035 69.5220321,37.1866545 L69.5220321,56.956573 C62.944795,61.194122 49.7925919,64.4894877 34.7598805,64.4894877 L34.7598805,64.4894877 Z M34.7598805,93.6721359 C19.7294402,93.6721359 6.57496596,90.379046 0,86.141497 L0,66.3715785 C8.45547435,70.6091275 21.1375503,72.9623099 34.7598805,72.9623099 C48.3822106,72.9623099 61.0665577,70.6091275 69.5220321,66.3715785 L69.5220321,86.141497 C62.944795,90.379046 49.7925919,93.6721359 34.7598805,93.6721359 L34.7598805,93.6721359 Z" id="Fill-28"></path>
                        </g>
                        <polygon id="Fill-40" fill="#B7B6B6" points="185.667379 48.5446017 171.827586 72.4405547 189.685603 72.4405547 203.527098 48.5446017 189.685603 24.6486486 171.827586 24.6486486"></polygon>
                        <polygon id="Fill-42" fill="#B7B6B6" points="422.581172 48.5446017 408.741379 72.4405547 426.599396 72.4405547 440.440891 48.5446017 426.599396 24.6486486 408.741379 24.6486486"></polygon>
                        <g id="Group-3" transform="translate(507.672414, 0.000000)" fill="#2FA836">
                            <path d="M39.2665143,70.732021 L20.1888929,51.9354643 L29.4081534,42.6925097 L39.2665143,52.8913025 L66.2947345,25.8076293 L75.1944449,34.7303781 L39.2665143,70.732021 Z M47.6940536,0 C21.4623241,0 -1.13686838e-13,21.5063577 -1.13686838e-13,47.7919061 C-1.13686838e-13,74.0774544 21.4623241,95.5838122 47.6940536,95.5838122 C73.925783,95.5838122 95.3881071,74.0774544 95.3881071,47.7919061 C95.3881071,21.5063577 73.925783,0 47.6940536,0 L47.6940536,0 Z" id="Fill-143"></path>
                        </g>
                        <g id="Group-2">
                            <path d="M9.45422126,75.7871422 L75.6319703,75.7871422 L75.6319703,23.6831438 L9.45422126,23.6831438 L9.45422126,75.7871422 Z M0,0 L0,75.7871422 C0,80.9973617 4.25466953,85.2607604 9.45422126,85.2607604 L75.6319703,85.2607604 C80.831522,85.2607604 85.0861916,80.9973617 85.0861916,75.7871422 L85.0861916,0 L0,0 Z" id="Fill-138" fill="#B7B6B6"></path>
                            <path d="M55.5626725,35.9214787 C49.3606458,35.9214787 43.5113751,38.3525538 39.0929259,42.7656403 C34.6798762,47.171513 32.2483793,52.9967152 32.2483793,59.1645763 L32.2483793,69.1341482 C32.2483793,70.6761135 31.0947231,71.8844371 29.6225067,71.8844371 C28.1736873,71.8844371 26.9966341,70.704969 26.9966341,69.2531771 L26.9966341,59.2836052 C26.9966341,51.6693626 29.9770625,44.4897559 35.387188,39.0667271 C40.7991132,33.6436984 47.9640199,30.6589586 55.5626725,30.6589586 C57.0114919,30.6589586 58.1885451,31.8384268 58.1885451,33.2902187 C58.1885451,34.6662649 56.9377011,35.9214787 55.5626725,35.9214787 M55.5626725,47.7630506 C49.2886548,47.7630506 44.1844911,52.8776863 44.1844911,59.1645763 L44.1844911,69.1341482 C44.1844911,70.6093852 42.9408462,71.8573851 41.46683,71.8573851 C40.0342086,71.8573851 38.867954,70.6887378 38.867954,69.2531771 L38.867954,59.2836052 C38.867954,54.8326457 40.6101368,50.6377788 43.7723425,47.4690853 C46.9345483,44.3003917 51.1226261,42.5546346 55.5626725,42.5546346 C56.9952939,42.5546346 58.1615485,43.7232819 58.1615485,45.1588426 C58.1615485,46.5222645 56.9233029,47.7630506 55.5626725,47.7630506" id="Fill-139" fill="#B7B6B6"></path>
                            <path d="M104.072024,71.980021 C104.072024,84.8405524 93.6675217,95.2664018 80.8333218,95.2664018 C67.9973222,95.2664018 57.5928194,84.8405524 57.5928194,71.980021 C57.5928194,59.1194895 67.9973222,48.6936402 80.8333218,48.6936402 C93.6675217,48.6936402 104.072024,59.1194895 104.072024,71.980021" id="Fill-140" fill="#FFFFFF"></path>
                            <path d="M91.1658336,73.5129689 L82.3613313,73.5129689 L82.3613313,82.3355351 L78.8391704,82.3355351 L78.8391704,73.5129689 L70.0346682,73.5129689 L70.0346682,69.9835817 L78.8391704,69.9835817 L78.8391704,61.1610155 L82.3613313,61.1610155 L82.3613313,69.9835817 L91.1658336,69.9835817 L91.1658336,73.5129689 Z M80.6011508,54.1040446 C70.9165582,54.1040446 62.9921462,62.0447149 62.9921462,71.749177 C62.9921462,81.4536392 70.9165582,89.392506 80.6011508,89.392506 C90.2857433,89.392506 98.2101553,81.4536392 98.2101553,71.749177 C98.2101553,62.0447149 90.2857433,54.1040446 80.6011508,54.1040446 L80.6011508,54.1040446 Z" id="Fill-141" fill="#B7B6B6"></path>
                        </g>
                    </g>
                </g>
            </g>
        </g>
    </g>
</svg>
